images/icons/edit-btn.svg

<svg width="22" height="22" viewBox="0 0 22 22" fill="none" xmlns="http://www.w3.org/2000/svg">
<path d="M17.5988 20.5337H1.46947V4.40441H11.1617L12.628 2.93811H1.46947C1.08059 2.93811 0.707628 3.0926 0.432643 3.36758C0.157658 3.64256 0.00317383 4.01552 0.00317383 4.40441V20.5337C0.00317383 20.9226 0.157658 21.2956 0.432643 21.5705C0.707628 21.8455 1.08059 22 1.46947 22H17.5988C17.9877 22 18.3606 21.8455 18.6356 21.5705C18.9106 21.2956 19.0651 20.9226 19.0651 20.5337V9.53646L17.5988 11.0028V20.5337Z" fill="white"/>
<path d="M21.6531 2.82076L19.1823 0.35004C19.0727 0.24009 18.9424 0.152855 18.799 0.0933337C18.6556 0.0338122 18.5018 0.00317383 18.3466 0.00317383C18.1913 0.00317383 18.0375 0.0338122 17.8941 0.0933337C17.7507 0.152855 17.6204 0.24009 17.5108 0.35004L7.45927 10.4602L6.64548 13.9866C6.61081 14.1576 6.61445 14.3341 6.65615 14.5034C6.69785 14.6728 6.77656 14.8308 6.88663 14.9661C6.9967 15.1014 7.13538 15.2107 7.29271 15.286C7.45004 15.3613 7.6221 15.4008 7.79652 15.4016C7.88667 15.4115 7.97764 15.4115 8.06779 15.4016L11.6236 14.6171L21.6531 4.49234C21.763 4.38269 21.8502 4.25242 21.9098 4.109C21.9693 3.96558 21.9999 3.81183 21.9999 3.65655C21.9999 3.50127 21.9693 3.34751 21.9098 3.20409C21.8502 3.06067 21.763 2.93041 21.6531 2.82076ZM10.8611 13.2608L8.17776 13.8547L8.80094 11.1933L16.367 3.5759L18.4345 5.64338L10.8611 13.2608ZM19.263 4.81492L17.1955 2.74744L18.3319 1.58906L20.414 3.67121L19.263 4.81492Z" fill="white"/>
</svg>

<svg width="22" height="22" fill="none" xmlns="http://www.w3.org/2000/svg"><path d="M17.599 20.534H1.469V4.404h9.693l1.466-1.466H1.469A1.466 1.466 0 00.003 4.404v16.13A1.466 1.466 0 001.47 22H17.6a1.466 1.466 0 001.466-1.466V9.536L17.6 11.003v9.53z" fill="#fff"/><path d="M21.653 2.82L19.183.35a1.18 1.18 0 00-1.672 0L7.459 10.46l-.814 3.527a1.18 1.18 0 001.152 1.415c.09.01.18.01.27 0l3.557-.785 10.03-10.125a1.182 1.182 0 000-1.671zM10.861 13.26l-2.683.595.623-2.662 7.566-7.617 2.067 2.067-7.573 7.618zm8.402-8.445l-2.068-2.068 1.137-1.158 2.082 2.082-1.151 1.144z" fill="#fff"/></svg>
